X: 154
T: Good Luck, a Reel
C: attr. John French (1753-1803)
R: reel
B: "John French Collection", John French ed. p.15 #3
S: http://www.heallan.com/french.asp
Z: 2012 John Chambers <jc:trillian.mit.edu>
M: C|
L: 1/8
K: F
B |\
AF T(FE/F/) CF T(FE/F/) | AFcF EG-GB | AF T(FE/F/) CF Ac | BGcB AF-FB |
AF T(FE/F/) CF T(FE/F/) | AFcF EG-GB | AF T(FE/F/) CF Ac | Bbge fF-F ||
f- |\
fcAc fcaf | cfaf T(gfg).a | fcAc fcag | fcdB AF-Ff |
fcAc fcaf | cfaf T(gfg).a | bagf dfcf | BGdB AF-F |]
